media/web/logo_black.svg

<?xml version="1.0" encoding="UTF-8" standalone="no"?>
<svg
   width="365.38293"
   zoomAndPan="magnify"
   viewBox="0 0 274.0372 63.510578"
   height="84.680771"
   preserveAspectRatio="xMidYMid"
   version="1.0"
   id="svg43"
   sodipodi:docname="Twixter.svg"
   inkscape:version="1.3.1 (9b9bdc1480, 2023-11-25, custom)"
   xmlns:inkscape="http://www.inkscape.org/namespaces/inkscape"
   xmlns:sodipodi="http://sodipodi.sourceforge.net/DTD/sodipodi-0.dtd"
   xmlns="http://www.w3.org/2000/svg"
   xmlns:svg="http://www.w3.org/2000/svg">
  <sodipodi:namedview
     id="namedview43"
     pagecolor="#ffffff"
     bordercolor="#000000"
     borderopacity="0.25"
     inkscape:showpageshadow="2"
     inkscape:pageopacity="0.0"
     inkscape:pagecheckerboard="0"
     inkscape:deskcolor="#d1d1d1"
     showgrid="false"
     inkscape:zoom="2.1642392"
     inkscape:cx="17.327105"
     inkscape:cy="141.85123"
     inkscape:window-width="1920"
     inkscape:window-height="1131"
     inkscape:window-x="0"
     inkscape:window-y="32"
     inkscape:window-maximized="1"
     inkscape:current-layer="svg43" />
  <defs
     id="defs1">
    <g
       id="g1" />
  </defs>
  <g
     fill="#000000"
     fill-opacity="0.502"
     id="g4"
     transform="translate(-584.6502,-363.62905)">
    <g
       transform="translate(584.07208,426.04588)"
       id="g3">
      <g
         id="g2">
        <path
           d="m 0.578125,-48.140625 v -12.03125 h 42.3125 v 12.03125 H 28.59375 V 0 H 14.875 v -48.140625 z m 0,0"
           id="path1" />
      </g>
    </g>
  </g>
  <g
     fill="#000000"
     fill-opacity="0.502"
     id="g7"
     transform="translate(-584.6502,-363.62905)">
    <g
       transform="translate(623.88928,426.04588)"
       id="g6">
      <g
         id="g5">
        <path
           d="m 27.34375,0 h -8.75 L -1.453125,-37.421875 h 14.875 l 9.109375,20.203125 8.984375,-20.203125 H 40.40625 L 49.375,-17.21875 58.5,-37.421875 H 73.375 L 53.3125,0 h -8.75 l -8.609375,-19.328125 z m 0,0"
           id="path4" />
      </g>
    </g>
  </g>
  <g
     fill="#000000"
     fill-opacity="0.502"
     id="g10"
     transform="translate(-584.6502,-363.62905)">
    <g
       transform="translate(692.14758,426.04588)"
       id="g9">
      <g
         id="g8">
        <path
           d="m 5.609375,-58.265625 c 1.507813,-1.507813 3.3125,-2.265625 5.40625,-2.265625 2.09375,0 3.890625,0.757812 5.390625,2.265625 1.507812,1.5 2.265625,3.296875 2.265625,5.390625 0,2.085938 -0.757813,3.882812 -2.265625,5.390625 -1.5,1.511719 -3.296875,2.265625 -5.390625,2.265625 -2.09375,0 -3.898437,-0.753906 -5.40625,-2.265625 -1.5,-1.507813 -2.25,-3.304687 -2.25,-5.390625 0,-2.09375 0.75,-3.890625 2.25,-5.390625 z M 4.375,-37.421875 V 0 h 12.90625 v -37.421875 z m 0,0"
           id="path7" />
      </g>
    </g>
  </g>
  <g
     fill="#000000"
     fill-opacity="0.502"
     id="g13"
     transform="translate(-584.6502,-363.62905)">
    <g
       transform="translate(710.52459,426.04588)"
       id="g12">
      <g
         id="g11">
        <path
           d="M 47.703125,0 H 32.09375 l -8.25,-10.578125 L 15.609375,0 H 0 l 15.96875,-19.546875 -13.703125,-17.875 h 15.09375 l 6.484375,8.6875 6.5,-8.6875 H 45.4375 l -13.703125,17.875 z m 0,0"
           id="path10" />
      </g>
    </g>
  </g>
  <g
     fill="#000000"
     fill-opacity="0.502"
     id="g16"
     transform="translate(-584.6502,-363.62905)">
    <g
       transform="translate(754.5715,426.04588)"
       id="g15">
      <g
         id="g14">
        <path
           d="M 6.5625,-37.421875 V -51.34375 h 12.90625 v 13.921875 h 7.875 v 9.84375 h -7.875 V -15.6875 c 0,3.460938 0.972656,5.1875 2.921875,5.1875 0.488281,0 1,-0.09766 1.53125,-0.296875 0.53125,-0.195313 0.941406,-0.390625 1.234375,-0.578125 l 0.4375,-0.296875 3.21875,10.4375 c -2.773438,1.550781 -5.933594,2.328125 -9.484375,2.328125 -2.429687,0 -4.515625,-0.421875 -6.265625,-1.265625 -1.75,-0.851563 -3.078125,-2 -3.984375,-3.4375 C 8.179688,-5.046875 7.535156,-6.550781 7.140625,-8.125 6.753906,-9.707031 6.5625,-11.398438 6.5625,-13.203125 v -14.375 H 1.171875 v -9.84375 z m 0,0"
           id="path13" />
      </g>
    </g>
  </g>
  <g
     fill="#000000"
     fill-opacity="0.502"
     id="g19"
     transform="translate(-584.6502,-363.62905)">
    <g
       transform="translate(779.73061,426.04588)"
       id="g18">
      <g
         id="g17">
        <path
           d="M 42.234375,-16.921875 H 15.09375 c 0,2.625 0.847656,4.574219 2.546875,5.84375 1.707031,1.261719 3.554687,1.890625 5.546875,1.890625 2.09375,0 3.75,-0.28125 4.96875,-0.84375 1.21875,-0.5625 2.601562,-1.664062 4.15625,-3.3125 l 9.328125,4.671875 C 37.753906,-2.160156 31.289062,1.09375 22.25,1.09375 c -5.648438,0 -10.492188,-1.929688 -14.53125,-5.796875 -4.03125,-3.863281 -6.046875,-8.519531 -6.046875,-13.96875 0,-5.445313 2.015625,-10.113281 6.046875,-14 4.039062,-3.894531 8.882812,-5.84375 14.53125,-5.84375 5.925781,0 10.75,1.714844 14.46875,5.140625 3.71875,3.429688 5.578125,8.328125 5.578125,14.703125 0,0.875 -0.02344,1.460937 -0.0625,1.75 z M 15.46875,-24.0625 H 29.6875 c -0.292969,-1.945312 -1.058594,-3.441406 -2.296875,-4.484375 -1.242187,-1.050781 -2.835937,-1.578125 -4.78125,-1.578125 -2.136719,0 -3.839844,0.5625 -5.109375,1.6875 -1.261719,1.117188 -1.9375,2.574219 -2.03125,4.375 z m 0,0"
           id="path16" />
      </g>
    </g>
  </g>
  <g
     fill="#000000"
     fill-opacity="0.502"
     id="g22"
     transform="translate(-584.6502,-363.62905)">
    <g
       transform="translate(820.0583,426.04588)"
       id="g21">
      <g
         id="g20">
        <path
           d="m 4.375,0 v -37.421875 h 12.90625 v 5.40625 h 0.15625 c 0.09375,-0.195313 0.25,-0.441406 0.46875,-0.734375 0.21875,-0.289062 0.691406,-0.800781 1.421875,-1.53125 0.726563,-0.726562 1.503906,-1.382812 2.328125,-1.96875 0.832031,-0.582031 1.90625,-1.101562 3.21875,-1.5625 1.3125,-0.46875 2.648438,-0.703125 4.015625,-0.703125 1.40625,0 2.785156,0.199219 4.140625,0.59375 1.363281,0.386719 2.363281,0.773437 3,1.15625 l 1.015625,0.59375 -5.390625,10.9375 c -1.605469,-1.363281 -3.84375,-2.046875 -6.71875,-2.046875 -1.554688,0 -2.890625,0.34375 -4.015625,1.03125 -1.117187,0.679688 -1.902344,1.507812 -2.359375,2.484375 -0.460938,0.96875 -0.789062,1.792969 -0.984375,2.46875 -0.199219,0.679687 -0.296875,1.214844 -0.296875,1.609375 V 0 Z m 0,0"
           id="path19" />
      </g>
    </g>
  </g>
  <g
     fill="#000000"
     fill-opacity="1"
     id="g25"
     transform="translate(-584.6502,-363.62905)">
    <g
       transform="translate(585.6543,424.1603)"
       id="g24">
      <g
         id="g23">
        <path
           d="m 0.578125,-48.140625 v -12.03125 h 42.3125 v 12.03125 H 28.59375 V 0 H 14.875 v -48.140625 z m 0,0"
           id="path22" />
      </g>
    </g>
  </g>
  <g
     fill="#000000"
     fill-opacity="1"
     id="g28"
     transform="translate(-584.6502,-363.62905)">
    <g
       transform="translate(625.47151,424.1603)"
       id="g27">
      <g
         id="g26">
        <path
           d="m 27.34375,0 h -8.75 L -1.453125,-37.421875 h 14.875 l 9.109375,20.203125 8.984375,-20.203125 H 40.40625 L 49.375,-17.21875 58.5,-37.421875 H 73.375 L 53.3125,0 h -8.75 l -8.609375,-19.328125 z m 0,0"
           id="path25" />
      </g>
    </g>
  </g>
  <g
     fill="#000000"
     fill-opacity="1"
     id="g31"
     transform="translate(-584.6502,-363.62905)">
    <g
       transform="translate(693.7298,424.1603)"
       id="g30">
      <g
         id="g29">
        <path
           d="m 5.609375,-58.265625 c 1.507813,-1.507813 3.3125,-2.265625 5.40625,-2.265625 2.09375,0 3.890625,0.757812 5.390625,2.265625 1.507812,1.5 2.265625,3.296875 2.265625,5.390625 0,2.085938 -0.757813,3.882812 -2.265625,5.390625 -1.5,1.511719 -3.296875,2.265625 -5.390625,2.265625 -2.09375,0 -3.898437,-0.753906 -5.40625,-2.265625 -1.5,-1.507813 -2.25,-3.304687 -2.25,-5.390625 0,-2.09375 0.75,-3.890625 2.25,-5.390625 z M 4.375,-37.421875 V 0 h 12.90625 v -37.421875 z m 0,0"
           id="path28" />
      </g>
    </g>
  </g>
  <g
     fill="#000000"
     fill-opacity="1"
     id="g34"
     transform="translate(-584.6502,-363.62905)">
    <g
       transform="translate(712.10682,424.1603)"
       id="g33">
      <g
         id="g32">
        <path
           d="M 47.703125,0 H 32.09375 l -8.25,-10.578125 L 15.609375,0 H 0 l 15.96875,-19.546875 -13.703125,-17.875 h 15.09375 l 6.484375,8.6875 6.5,-8.6875 H 45.4375 l -13.703125,17.875 z m 0,0"
           id="path31" />
      </g>
    </g>
  </g>
  <g
     fill="#000000"
     fill-opacity="1"
     id="g37"
     transform="translate(-584.6502,-363.62905)">
    <g
       transform="translate(756.15373,424.1603)"
       id="g36">
      <g
         id="g35">
        <path
           d="M 6.5625,-37.421875 V -51.34375 h 12.90625 v 13.921875 h 7.875 v 9.84375 h -7.875 V -15.6875 c 0,3.460938 0.972656,5.1875 2.921875,5.1875 0.488281,0 1,-0.09766 1.53125,-0.296875 0.53125,-0.195313 0.941406,-0.390625 1.234375,-0.578125 l 0.4375,-0.296875 3.21875,10.4375 c -2.773438,1.550781 -5.933594,2.328125 -9.484375,2.328125 -2.429687,0 -4.515625,-0.421875 -6.265625,-1.265625 -1.75,-0.851563 -3.078125,-2 -3.984375,-3.4375 C 8.179688,-5.046875 7.535156,-6.550781 7.140625,-8.125 6.753906,-9.707031 6.5625,-11.398438 6.5625,-13.203125 v -14.375 H 1.171875 v -9.84375 z m 0,0"
           id="path34" />
      </g>
    </g>
  </g>
  <g
     fill="#000000"
     fill-opacity="1"
     id="g40"
     transform="translate(-584.6502,-363.62905)">
    <g
       transform="translate(781.31283,424.1603)"
       id="g39">
      <g
         id="g38">
        <path
           d="M 42.234375,-16.921875 H 15.09375 c 0,2.625 0.847656,4.574219 2.546875,5.84375 1.707031,1.261719 3.554687,1.890625 5.546875,1.890625 2.09375,0 3.75,-0.28125 4.96875,-0.84375 1.21875,-0.5625 2.601562,-1.664062 4.15625,-3.3125 l 9.328125,4.671875 C 37.753906,-2.160156 31.289062,1.09375 22.25,1.09375 c -5.648438,0 -10.492188,-1.929688 -14.53125,-5.796875 -4.03125,-3.863281 -6.046875,-8.519531 -6.046875,-13.96875 0,-5.445313 2.015625,-10.113281 6.046875,-14 4.039062,-3.894531 8.882812,-5.84375 14.53125,-5.84375 5.925781,0 10.75,1.714844 14.46875,5.140625 3.71875,3.429688 5.578125,8.328125 5.578125,14.703125 0,0.875 -0.02344,1.460937 -0.0625,1.75 z M 15.46875,-24.0625 H 29.6875 c -0.292969,-1.945312 -1.058594,-3.441406 -2.296875,-4.484375 -1.242187,-1.050781 -2.835937,-1.578125 -4.78125,-1.578125 -2.136719,0 -3.839844,0.5625 -5.109375,1.6875 -1.261719,1.117188 -1.9375,2.574219 -2.03125,4.375 z m 0,0"
           id="path37" />
      </g>
    </g>
  </g>
  <g
     fill="#000000"
     fill-opacity="1"
     id="g43"
     transform="translate(-584.6502,-363.62905)">
    <g
       transform="translate(821.64053,424.1603)"
       id="g42">
      <g
         id="g41">
        <path
           d="m 4.375,0 v -37.421875 h 12.90625 v 5.40625 h 0.15625 c 0.09375,-0.195313 0.25,-0.441406 0.46875,-0.734375 0.21875,-0.289062 0.691406,-0.800781 1.421875,-1.53125 0.726563,-0.726562 1.503906,-1.382812 2.328125,-1.96875 0.832031,-0.582031 1.90625,-1.101562 3.21875,-1.5625 1.3125,-0.46875 2.648438,-0.703125 4.015625,-0.703125 1.40625,0 2.785156,0.199219 4.140625,0.59375 1.363281,0.386719 2.363281,0.773437 3,1.15625 l 1.015625,0.59375 -5.390625,10.9375 c -1.605469,-1.363281 -3.84375,-2.046875 -6.71875,-2.046875 -1.554688,0 -2.890625,0.34375 -4.015625,1.03125 -1.117187,0.679688 -1.902344,1.507812 -2.359375,2.484375 -0.460938,0.96875 -0.789062,1.792969 -0.984375,2.46875 -0.199219,0.679687 -0.296875,1.214844 -0.296875,1.609375 V 0 Z m 0,0"
           id="path40" />
      </g>
    </g>
  </g>
  <path
     style="fill:#000000;fill-opacity:0.501961;stroke-width:0.00390625"
     d="m 228.60819,33.317383 c 0.003,-0.0038 0.36675,-0.47793 0.80781,-1.053711 0.44106,-0.575781 0.80519,-1.050342 0.80918,-1.054579 0.007,-0.0075 0.007,0.01988 0.007,1.053711 v 1.061415 h -0.81506 c -0.77588,0 -0.81477,-3.29e-4 -0.80917,-0.0068 z"
     id="path60"
     transform="scale(0.75)" />
</svg>

<svg xmlns="http://www.w3.org/2000/svg" xmlns:xlink="http://www.w3.org/1999/xlink" width="1920" zoomAndPan="magnify" viewBox="0 0 1440 809.999993" height="1080" preserveAspectRatio="xMidYMid meet" version="1.0"><defs><g/></defs><g fill="#000000" fill-opacity="0.502"><g transform="translate(584.072079, 426.045877)"><g><path d="M 0.578125 -48.140625 L 0.578125 -60.171875 L 42.890625 -60.171875 L 42.890625 -48.140625 L 28.59375 -48.140625 L 28.59375 0 L 14.875 0 L 14.875 -48.140625 Z M 0.578125 -48.140625 "/></g></g></g><g fill="#000000" fill-opacity="0.502"><g transform="translate(623.889285, 426.045877)"><g><path d="M 27.34375 0 L 18.59375 0 L -1.453125 -37.421875 L 13.421875 -37.421875 L 22.53125 -17.21875 L 31.515625 -37.421875 L 40.40625 -37.421875 L 49.375 -17.21875 L 58.5 -37.421875 L 73.375 -37.421875 L 53.3125 0 L 44.5625 0 L 35.953125 -19.328125 Z M 27.34375 0 "/></g></g></g><g fill="#000000" fill-opacity="0.502"><g transform="translate(692.147579, 426.045877)"><g><path d="M 5.609375 -58.265625 C 7.117188 -59.773438 8.921875 -60.53125 11.015625 -60.53125 C 13.109375 -60.53125 14.90625 -59.773438 16.40625 -58.265625 C 17.914062 -56.765625 18.671875 -54.96875 18.671875 -52.875 C 18.671875 -50.789062 17.914062 -48.992188 16.40625 -47.484375 C 14.90625 -45.972656 13.109375 -45.21875 11.015625 -45.21875 C 8.921875 -45.21875 7.117188 -45.972656 5.609375 -47.484375 C 4.109375 -48.992188 3.359375 -50.789062 3.359375 -52.875 C 3.359375 -54.96875 4.109375 -56.765625 5.609375 -58.265625 Z M 4.375 -37.421875 L 4.375 0 L 17.28125 0 L 17.28125 -37.421875 Z M 4.375 -37.421875 "/></g></g></g><g fill="#000000" fill-opacity="0.502"><g transform="translate(710.524593, 426.045877)"><g><path d="M 47.703125 0 L 32.09375 0 L 23.84375 -10.578125 L 15.609375 0 L 0 0 L 15.96875 -19.546875 L 2.265625 -37.421875 L 17.359375 -37.421875 L 23.84375 -28.734375 L 30.34375 -37.421875 L 45.4375 -37.421875 L 31.734375 -19.546875 Z M 47.703125 0 "/></g></g></g><g fill="#000000" fill-opacity="0.502"><g transform="translate(754.571504, 426.045877)"><g><path d="M 6.5625 -37.421875 L 6.5625 -51.34375 L 19.46875 -51.34375 L 19.46875 -37.421875 L 27.34375 -37.421875 L 27.34375 -27.578125 L 19.46875 -27.578125 L 19.46875 -15.6875 C 19.46875 -12.226562 20.441406 -10.5 22.390625 -10.5 C 22.878906 -10.5 23.390625 -10.597656 23.921875 -10.796875 C 24.453125 -10.992188 24.863281 -11.1875 25.15625 -11.375 L 25.59375 -11.671875 L 28.8125 -1.234375 C 26.039062 0.316406 22.878906 1.09375 19.328125 1.09375 C 16.898438 1.09375 14.8125 0.671875 13.0625 -0.171875 C 11.3125 -1.023438 9.984375 -2.171875 9.078125 -3.609375 C 8.179688 -5.046875 7.535156 -6.550781 7.140625 -8.125 C 6.753906 -9.707031 6.5625 -11.398438 6.5625 -13.203125 L 6.5625 -27.578125 L 1.171875 -27.578125 L 1.171875 -37.421875 Z M 6.5625 -37.421875 "/></g></g></g><g fill="#000000" fill-opacity="0.502"><g transform="translate(779.730606, 426.045877)"><g><path d="M 42.234375 -16.921875 L 15.09375 -16.921875 C 15.09375 -14.296875 15.941406 -12.347656 17.640625 -11.078125 C 19.347656 -9.816406 21.195312 -9.1875 23.1875 -9.1875 C 25.28125 -9.1875 26.9375 -9.46875 28.15625 -10.03125 C 29.375 -10.59375 30.757812 -11.695312 32.3125 -13.34375 L 41.640625 -8.671875 C 37.753906 -2.160156 31.289062 1.09375 22.25 1.09375 C 16.601562 1.09375 11.757812 -0.835938 7.71875 -4.703125 C 3.6875 -8.566406 1.671875 -13.222656 1.671875 -18.671875 C 1.671875 -24.117188 3.6875 -28.785156 7.71875 -32.671875 C 11.757812 -36.566406 16.601562 -38.515625 22.25 -38.515625 C 28.175781 -38.515625 33 -36.800781 36.71875 -33.375 C 40.4375 -29.945312 42.296875 -25.046875 42.296875 -18.671875 C 42.296875 -17.796875 42.273438 -17.210938 42.234375 -16.921875 Z M 15.46875 -24.0625 L 29.6875 -24.0625 C 29.394531 -26.007812 28.628906 -27.503906 27.390625 -28.546875 C 26.148438 -29.597656 24.554688 -30.125 22.609375 -30.125 C 20.472656 -30.125 18.769531 -29.5625 17.5 -28.4375 C 16.238281 -27.320312 15.5625 -25.863281 15.46875 -24.0625 Z M 15.46875 -24.0625 "/></g></g></g><g fill="#000000" fill-opacity="0.502"><g transform="translate(820.058302, 426.045877)"><g><path d="M 4.375 0 L 4.375 -37.421875 L 17.28125 -37.421875 L 17.28125 -32.015625 L 17.4375 -32.015625 C 17.53125 -32.210938 17.6875 -32.457031 17.90625 -32.75 C 18.125 -33.039062 18.597656 -33.550781 19.328125 -34.28125 C 20.054688 -35.007812 20.832031 -35.664062 21.65625 -36.25 C 22.488281 -36.832031 23.5625 -37.351562 24.875 -37.8125 C 26.1875 -38.28125 27.523438 -38.515625 28.890625 -38.515625 C 30.296875 -38.515625 31.675781 -38.316406 33.03125 -37.921875 C 34.394531 -37.535156 35.394531 -37.148438 36.03125 -36.765625 L 37.046875 -36.171875 L 31.65625 -25.234375 C 30.050781 -26.597656 27.8125 -27.28125 24.9375 -27.28125 C 23.382812 -27.28125 22.046875 -26.9375 20.921875 -26.25 C 19.804688 -25.570312 19.019531 -24.742188 18.5625 -23.765625 C 18.101562 -22.796875 17.773438 -21.972656 17.578125 -21.296875 C 17.378906 -20.617188 17.28125 -20.082031 17.28125 -19.6875 L 17.28125 0 Z M 4.375 0 "/></g></g></g><g fill="#000000" fill-opacity="1"><g transform="translate(585.654303, 424.1603)"><g><path d="M 0.578125 -48.140625 L 0.578125 -60.171875 L 42.890625 -60.171875 L 42.890625 -48.140625 L 28.59375 -48.140625 L 28.59375 0 L 14.875 0 L 14.875 -48.140625 Z M 0.578125 -48.140625 "/></g></g></g><g fill="#000000" fill-opacity="1"><g transform="translate(625.471509, 424.1603)"><g><path d="M 27.34375 0 L 18.59375 0 L -1.453125 -37.421875 L 13.421875 -37.421875 L 22.53125 -17.21875 L 31.515625 -37.421875 L 40.40625 -37.421875 L 49.375 -17.21875 L 58.5 -37.421875 L 73.375 -37.421875 L 53.3125 0 L 44.5625 0 L 35.953125 -19.328125 Z M 27.34375 0 "/></g></g></g><g fill="#000000" fill-opacity="1"><g transform="translate(693.729803, 424.1603)"><g><path d="M 5.609375 -58.265625 C 7.117188 -59.773438 8.921875 -60.53125 11.015625 -60.53125 C 13.109375 -60.53125 14.90625 -59.773438 16.40625 -58.265625 C 17.914062 -56.765625 18.671875 -54.96875 18.671875 -52.875 C 18.671875 -50.789062 17.914062 -48.992188 16.40625 -47.484375 C 14.90625 -45.972656 13.109375 -45.21875 11.015625 -45.21875 C 8.921875 -45.21875 7.117188 -45.972656 5.609375 -47.484375 C 4.109375 -48.992188 3.359375 -50.789062 3.359375 -52.875 C 3.359375 -54.96875 4.109375 -56.765625 5.609375 -58.265625 Z M 4.375 -37.421875 L 4.375 0 L 17.28125 0 L 17.28125 -37.421875 Z M 4.375 -37.421875 "/></g></g></g><g fill="#000000" fill-opacity="1"><g transform="translate(712.106817, 424.1603)"><g><path d="M 47.703125 0 L 32.09375 0 L 23.84375 -10.578125 L 15.609375 0 L 0 0 L 15.96875 -19.546875 L 2.265625 -37.421875 L 17.359375 -37.421875 L 23.84375 -28.734375 L 30.34375 -37.421875 L 45.4375 -37.421875 L 31.734375 -19.546875 Z M 47.703125 0 "/></g></g></g><g fill="#000000" fill-opacity="1"><g transform="translate(756.153728, 424.1603)"><g><path d="M 6.5625 -37.421875 L 6.5625 -51.34375 L 19.46875 -51.34375 L 19.46875 -37.421875 L 27.34375 -37.421875 L 27.34375 -27.578125 L 19.46875 -27.578125 L 19.46875 -15.6875 C 19.46875 -12.226562 20.441406 -10.5 22.390625 -10.5 C 22.878906 -10.5 23.390625 -10.597656 23.921875 -10.796875 C 24.453125 -10.992188 24.863281 -11.1875 25.15625 -11.375 L 25.59375 -11.671875 L 28.8125 -1.234375 C 26.039062 0.316406 22.878906 1.09375 19.328125 1.09375 C 16.898438 1.09375 14.8125 0.671875 13.0625 -0.171875 C 11.3125 -1.023438 9.984375 -2.171875 9.078125 -3.609375 C 8.179688 -5.046875 7.535156 -6.550781 7.140625 -8.125 C 6.753906 -9.707031 6.5625 -11.398438 6.5625 -13.203125 L 6.5625 -27.578125 L 1.171875 -27.578125 L 1.171875 -37.421875 Z M 6.5625 -37.421875 "/></g></g></g><g fill="#000000" fill-opacity="1"><g transform="translate(781.31283, 424.1603)"><g><path d="M 42.234375 -16.921875 L 15.09375 -16.921875 C 15.09375 -14.296875 15.941406 -12.347656 17.640625 -11.078125 C 19.347656 -9.816406 21.195312 -9.1875 23.1875 -9.1875 C 25.28125 -9.1875 26.9375 -9.46875 28.15625 -10.03125 C 29.375 -10.59375 30.757812 -11.695312 32.3125 -13.34375 L 41.640625 -8.671875 C 37.753906 -2.160156 31.289062 1.09375 22.25 1.09375 C 16.601562 1.09375 11.757812 -0.835938 7.71875 -4.703125 C 3.6875 -8.566406 1.671875 -13.222656 1.671875 -18.671875 C 1.671875 -24.117188 3.6875 -28.785156 7.71875 -32.671875 C 11.757812 -36.566406 16.601562 -38.515625 22.25 -38.515625 C 28.175781 -38.515625 33 -36.800781 36.71875 -33.375 C 40.4375 -29.945312 42.296875 -25.046875 42.296875 -18.671875 C 42.296875 -17.796875 42.273438 -17.210938 42.234375 -16.921875 Z M 15.46875 -24.0625 L 29.6875 -24.0625 C 29.394531 -26.007812 28.628906 -27.503906 27.390625 -28.546875 C 26.148438 -29.597656 24.554688 -30.125 22.609375 -30.125 C 20.472656 -30.125 18.769531 -29.5625 17.5 -28.4375 C 16.238281 -27.320312 15.5625 -25.863281 15.46875 -24.0625 Z M 15.46875 -24.0625 "/></g></g></g><g fill="#000000" fill-opacity="1"><g transform="translate(821.640526, 424.1603)"><g><path d="M 4.375 0 L 4.375 -37.421875 L 17.28125 -37.421875 L 17.28125 -32.015625 L 17.4375 -32.015625 C 17.53125 -32.210938 17.6875 -32.457031 17.90625 -32.75 C 18.125 -33.039062 18.597656 -33.550781 19.328125 -34.28125 C 20.054688 -35.007812 20.832031 -35.664062 21.65625 -36.25 C 22.488281 -36.832031 23.5625 -37.351562 24.875 -37.8125 C 26.1875 -38.28125 27.523438 -38.515625 28.890625 -38.515625 C 30.296875 -38.515625 31.675781 -38.316406 33.03125 -37.921875 C 34.394531 -37.535156 35.394531 -37.148438 36.03125 -36.765625 L 37.046875 -36.171875 L 31.65625 -25.234375 C 30.050781 -26.597656 27.8125 -27.28125 24.9375 -27.28125 C 23.382812 -27.28125 22.046875 -26.9375 20.921875 -26.25 C 19.804688 -25.570312 19.019531 -24.742188 18.5625 -23.765625 C 18.101562 -22.796875 17.773438 -21.972656 17.578125 -21.296875 C 17.378906 -20.617188 17.28125 -20.082031 17.28125 -19.6875 L 17.28125 0 Z M 4.375 0 "/></g></g></g></svg>
